X: 14
T:Peggy's Wedding. BF14.13
M:6/8
L:1/8
Q:120
S:MS14,Browne "D",early 19thC,Troutbeck,W'morland
R:Jig
O:England
A:Lakes
N:cf BF13.No time or key signature given,
Z:vmp.Chris Partington
K:C major
cdcc2c|ceg gec|cdc cdc|Bcd d"c in ms"BG|!
cdcc2c|ceg gec|fgf efe|Bcd dBG:|!
|:cdcg2c|e2cg2c|cdcg2c|Bcd dBG|!
cdc gcc|ecc gcc|afd gec|Bcd dBG:|]
W:Bars 14 Given as (cdcc2c2) in ms. CGP ||
